X: 2
T:Reel Eug\`ene $1(R-143)
R:reel
Z:Transcribed to abc by Mary Lou Knack
M:C|
K:D
"Bm"B2Bc dcB2| "Em"e2ef gece| "F#7"f2fg fede| fbbf bfdc|
"Bm"B2Bc dcB2| "Em"e2ef gece| "F#7"f2fg fedc|1 "Bm"B4 "F#7"F4 :|2 "G"B4 "A7"A4 |]
|:"D"f2fe d2dB| AAdf "Do"b2f2| "Em"a2ag e2 (3cec| "A7"Aceg (3faf e2|
"D"f2fe d2dB| AAdf "Do"b2f2| "Em"a2ag egec|1 "A7"dfec "D"d3e :|2 "A7"dfec "D"d4 |]

